fonts/svg/telescope-16.svg

<?xml version="1.0" encoding="UTF-8" standalone="no"?>
<svg
   xmlns:dc="http://purl.org/dc/elements/1.1/"
   xmlns:cc="http://creativecommons.org/ns#"
   xmlns:rdf="http://www.w3.org/1999/02/22-rdf-syntax-ns#"
   xmlns:svg="http://www.w3.org/2000/svg"
   xmlns="http://www.w3.org/2000/svg"
   xmlns:sodipodi="http://sodipodi.sourceforge.net/DTD/sodipodi-0.dtd"
   xmlns:inkscape="http://www.inkscape.org/namespaces/inkscape"
   width="16"
   height="16"
   viewBox="0 0 16 16"
   version="1.1"
   id="svg835"
   sodipodi:docname="telescope-16.svg"
   inkscape:version="1.0.1 (c497b03c, 2020-09-10)">
  <metadata
     id="metadata841">
    <rdf:RDF>
      <cc:Work
         rdf:about="">
        <dc:format>image/svg+xml</dc:format>
        <dc:type
           rdf:resource="http://purl.org/dc/dcmitype/StillImage" />
      </cc:Work>
    </rdf:RDF>
  </metadata>
  <defs
     id="defs839" />
  <sodipodi:namedview
     pagecolor="#ffffff"
     bordercolor="#666666"
     borderopacity="1"
     objecttolerance="10"
     gridtolerance="10"
     guidetolerance="10"
     inkscape:pageopacity="0"
     inkscape:pageshadow="2"
     inkscape:window-width="1440"
     inkscape:window-height="900"
     id="namedview837"
     showgrid="false"
     inkscape:zoom="38.625"
     inkscape:cx="8"
     inkscape:cy="8"
     inkscape:window-x="0"
     inkscape:window-y="0"
     inkscape:window-maximized="0"
     inkscape:current-layer="svg835" />
  <path
     fill-rule="evenodd"
     d="M 14.184,1.143 C 13.674665,0.26126654 12.523,-0.00110316 11.682,0.573 L 0.912,7.916 c -0.75621143,0.5157214 -0.98725119,1.5270652 -0.53,2.32 l 0.447,0.775 c 0.4577903,0.793276 1.4498059,1.099384 2.275,0.702 L 14.849,6.057 C 15.766051,5.6155681 16.114401,4.4876878 15.606,3.606 L 14.184,1.142 Z m -1.657,0.669 c 0.120132,-0.082509 0.285087,-0.045187 0.358,0.081 l 1.422,2.464 c 0.07254,0.1258846 0.02286,0.286881 -0.108,0.35 l -2.016,0.97 -1.505,-2.605 1.85,-1.26 z M 9.436,3.92 10.827,6.33 5.407,8.94 4.465,7.31 9.435,3.92 Z m -6.215,4.237 0.83,1.436 -1.598,0.769 c -0.1178125,0.05682 -0.2595065,0.01322 -0.325,-0.1 L 1.681,9.487 C 1.6164338,9.3742256 1.6490329,9.2307896 1.756,9.157 l 1.466,-1 z m 6.254,2.306 C 9.2657149,10.157443 8.8647255,10.050399 8.531,10.211 l -1.809,0.87 c -0.1181234,0.05724 -0.2191555,0.14448 -0.293,0.253 L 4.38,14.326 c -0.5653331,0.825333 0.6726669,1.673333 1.238,0.848 l 1.881,-2.75 v 2.826 c 0,1 1.5,1 1.5,0 v -2.826 l 1.881,2.75 c 0.565333,0.825333 1.803333,-0.02267 1.238,-0.848 L 9.474,10.463 Z"
     id="path833"
     sodipodi:nodetypes="cccccccccccccccccccccccccccccccccccccccssccccc" />
</svg>

<svg xmlns="http://www.w3.org/2000/svg" width="16" height="16" viewBox="0 0 16 16"><path fill-rule="evenodd" d="M14.184 1.143a1.75 1.75 0 00-2.502-.57L.912 7.916a1.75 1.75 0 00-.53 2.32l.447.775a1.75 1.75 0 002.275.702l11.745-5.656a1.75 1.75 0 00.757-2.451l-1.422-2.464zm-1.657.669a.25.25 0 01.358.081l1.422 2.464a.25.25 0 01-.108.35l-2.016.97-1.505-2.605 1.85-1.26zM9.436 3.92l1.391 2.41-5.42 2.61-.942-1.63 4.97-3.39zM3.222 8.157l-1.466 1a.25.25 0 00-.075.33l.447.775a.25.25 0 00.325.1l1.598-.769-.83-1.436zm6.253 2.306a.75.75 0 00-.944-.252l-1.809.87a.75.75 0 00-.293.253L4.38 14.326a.75.75 0 101.238.848l1.881-2.75v2.826a.75.75 0 001.5 0v-2.826l1.881 2.75a.75.75 0 001.238-.848l-2.644-3.863z"/></svg>
